X:2
T:Miss Megan Harrington
T:Seconds
R:Hornpipe
C:Ryan Canning
M:2/4
L:1/16
K:De
[| {g}A2 | {Gdc}d2{g}Ad {g}fa{g}a{f}(g | g)age {g}fd{g}d{G}d | {A}B3d {g}BA{gAGAG}A2 | {ge}f2{g}ed e{g}e{A}eA |
{Gdc}d2{g}Ad {g}fa{g}a{f}(g | g)age {g}fd{g}d{G}d | {A}B2{g}Bd {g}BA{gAGAG}A2 | {ge}f2{g}ed {g}d{G}d{g}A2 |
 {Gdc}d2{g}Ad {g}fa{g}a{f}(g | g)age {g}fd{g}d{G}d | {A}B3d {g}BA{gAGAG}A2 | {ge}f2{g}ed e{g}e{A}eA |
{Gdc}d2{g}Ad {g}fa{g}a{f}(e | e4) {g}d4 | {g}B4{G}A4 | {gc}d2{g}dB {G}A2 |
[|: {g}AB | {gc}d4 {g}c4 | {g}B4 {g}Bd{gdedG}d2 | {g}fd{G}df {g}f{e}fdf | a2{g}ad {g}e4 |
{gc}d4 {g}c4 | {g}B4 {g}Bd{gdedG}d2 | {g}fd{G}df {g}f{e}fdf | a2{g}ag f2 :]|
[|: A2 | {g}fA{G}Aa A{G}AaA | {G}Af{g}f{e}f de{gdedG}d2 | {g}fd{G}df {g}f{e}fdf | a2{g}ad {g}e4 |
{g}f3{g}(e e2){g}(d2 | d){e}c3 {g}f2e2| {gf}g4 {a}f4 | a2{g}ag f2 :]|
[| {g}Ad | {gf}g3e {gfg}f3d | {g}ef{g}ed {g}Bd{g}d{G}d | {g}fg{f}ge f{g}f{e}fd | {g}ef{g}ed {gcd}ce{ag}a2 |
 fg{f}ge f{g}f{e}fd | {g}ef{g}ed {g}Bd{gdedG}d2 | {g}dA{G}Ad {g}d{G}d{g}Ad | {ge}f2{g}ed {gc}d{G}d{g}Ad |
{gf}g3e {gfg}f3d | {g}ef{g}ed {g}Bd{g}d{G}d |  {g}e4 {g}d4 | {g}c4 {g}e4 |
 {g}Ad{G}dc d{g}d{G}dB | {g}cd{g}ef {a}g(a3 | a8) |{g}a2{g}ag f4 |]
